img/svg/logo-red.svg

<svg width="54" height="54" viewBox="0 0 54 54" fill="none" xmlns="http://www.w3.org/2000/svg">
<path d="M36.4118 0.333008C45.9414 0.333008 53.6667 8.05829 53.6667 17.5879C53.6667 27.1175 45.9414 34.8428 36.4118 34.8428C35.5454 34.8428 34.8431 35.5451 34.8431 36.4114C34.8431 37.1815 35.398 37.822 36.1298 37.9548L36.4118 37.9801H53.6667V53.6663H36.4118C26.8821 53.6663 19.1569 45.9411 19.1569 36.4114C19.1569 26.8818 26.8821 19.1565 36.4118 19.1565C37.2781 19.1565 37.9804 18.4542 37.9804 17.5879C37.9804 16.8178 37.4255 16.1774 36.6937 16.0446L36.4118 16.0193H17.5882C16.8182 16.0193 16.1777 16.5742 16.0449 17.3059L16.0196 17.5879V53.6663H0.333328V17.5879C0.333328 8.29072 7.68636 0.710924 16.8942 0.346709L17.5882 0.333008H36.4118Z" fill="#DA2F20"/>
</svg>

<svg width="54" height="54" fill="none" xmlns="http://www.w3.org/2000/svg"><path d="M36.412.333c9.53 0 17.255 7.725 17.255 17.255S45.94 34.843 36.412 34.843a1.569 1.569 0 00-.282 3.112l.282.025h17.255v15.686H36.412c-9.53 0-17.255-7.725-17.255-17.255s7.725-17.255 17.255-17.255a1.569 1.569 0 00.282-3.111l-.282-.026H17.588c-.77 0-1.41.555-1.543 1.287l-.025.282v36.078H.333V17.588C.333 8.29 7.686.71 16.894.347l.694-.014h18.824z" fill="#DA2F20"/></svg>
